dist/svgs/devui-icons/op/unload.svg

<?xml version="1.0" encoding="UTF-8"?>
<svg width="16px" height="16px" viewBox="0 0 16 16" version="1.1" xmlns="http://www.w3.org/2000/svg" xmlns:xlink="http://www.w3.org/1999/xlink">
    <title>操作/卸载</title>
    <desc>Created with Sketch.</desc>
    <g id="操作/卸载" stroke="none" stroke-width="1" fill="none" fill-rule="evenodd">
        <path d="M11.5355339,8.70710678 L10.1213203,7.29289322 L12.9497475,4.46446609 L11.5355339,3.05025253 L8.70710678,5.87867966 L7.29289322,4.46446609 L11.5355339,0.221825407 L15.7781746,4.46446609 L11.5355339,8.70710678 Z M8.70710678,11.5355339 L4.46446609,15.7781746 L0.221825407,11.5355339 L4.46446609,7.29289322 L5.87867966,8.70710678 L3.05025253,11.5355339 L4.46446609,12.9497475 L7.29289322,10.1213203 L8.70710678,11.5355339 Z M5.17157288,3.75735931 L12.2426407,10.8284271 L10.8284271,12.2426407 L3.75735931,5.17157288 L5.17157288,3.75735931 Z" id="形状" fill="#293040"></path>
    </g>
</svg>

<svg xmlns="http://www.w3.org/2000/svg" viewBox="0 0 16 16"><path fill-rule="evenodd" d="M11.536 8.707L10.12 7.293l2.829-2.829-1.414-1.414-2.828 2.83-1.414-1.416L11.536.222l4.242 4.242-4.242 4.243zm-2.829 2.829l-4.243 4.242-4.242-4.242 4.242-4.243L5.88 8.707l-2.83 2.829 1.414 1.414 2.829-2.829 1.414 1.415zM5.172 3.757l7.07 7.071-1.414 1.415-7.07-7.071 1.414-1.415z"/></svg>
